X: 1
T: The Honeysuckle
R: hornpipe
M: 4/4
L: 1/8
K: Gmaj
(3def|:gagf eBBA|AGEF G2Bd|edf2 edBA|Bdef e2af|
gagf eBBA|AGEF G2Bd|edf2 edBA|1 BdAF G2Bd:|2 BdAF G2BA||
|:Bdef g2(3efg|afdf gaba|ggfg edBA|Bdef e2af|
gagf eBBA|AGEF G2Bd|edf2 edBA|1 BdAF G4:|2 BdAF G2||

